X: 1609
T: Anna Thug Mi Gradh Dhuit
R: reel
M: 4/4
K: Amajor
cE~E2 EFAB|c2Bc AF~F2|cE~E2 EFAB|cABc A3B:|
ce~e2 efaf|e2cA BAFA|ce~e2 efaf|e2ce f3e|
ce~e2 efaf|e2cA BAFA|cE~E2 EFAB|cABc A4||

